X: 185
T: Lost Girl
B: canberra pickers and fiddlers
B: old time tunes update
B: tunes
M:4/4
R: reel
Q: 1/4=100
K:D
V:1 
DEFA B3A|FBAB FBEB|DEFA B2AB|dBAF EDB,A,|
DEFA B3A|FBAB FBEB|DEFA B2AB|dBAF ED~D2:|
|:d4d2BA|Beed e3f|d4d2ed|f4f2e2|
d4d2BA|Beed e3f|defe defe|dBAF ED~D2:|
% abcbook-tune_id 67a7d9ec897e7ac51c10f1e4
% abcbook-tune_composer_id 
% abcbook-link-0 https://www.youtube.com/watch?v=NCVFS2Z3X74
% abcbook-link-title-0 Foghorn Stringband Performs &quot;Lost Girl&quot;
% abcbook-boost 0
% abcbook-difficulty 0
% abcbook-tags old time tunes
% abcbook-tablature 
% abcbook-transpose 5
% abcbook-tuning GDAD
% abcbook-lastupdated 1739178082769
% abcbook-src-url 
% abcbook-soundfonts 
% abcbook-repeats 1
%%MIDI transpose 5


